X: 134
T:Jota Popular nº1
M:3/4
L:1/8
Q:250
C:Trad
S:Rep. "Os Rosales"
R:Jota
K:C
GFED | {B,}C6- | C2 GFED| C6- | C2 GFED | C2 GFED | C>"F."c CDEA| G6- |
G2 cBAB| G6- |
G2 cBAB| G6- | G2 cBAG | F2 AGFE | D2 GFED | C6- | C2 :||: D2 "~"C2 | B,
3 "F."c B,>"F."c | B,4 C2 | D2EDC2-|
C2 |: G2"~"F2 |E3 "F."c E2 | {B,}E4 F2 | G2 AGF2- | F>"F."c F2 "~"E2 | D
3 "F."c D2 | {B,}D4 E2 |1 F2 GFE2- | 
"        3 veces"E2 :|2 F2 GF E2- | E6- | E2 ||

